X: 40433
T: Tom Mhic's
R: polka
M: 2/4
K: Dmajor
|:D>E FA|BA F2|EF GE|BA F/G/F/A/|
DE FA|BA FD|E>F GE|1 DF D2:|2 DF DF/A/||
|:de/d/ cd/c/|BA FA|B2 B>c|BA F/G/A|
d2 c2|BA FA|EF G>E|1 DF DF/A/:|2 D2- D2||

